icons/svg/sport/canoe.svg

<?xml version="1.0" encoding="UTF-8" standalone="no"?>
<!-- Created with Inkscape (http://www.inkscape.org/) -->

<svg
   xmlns:dc="http://purl.org/dc/elements/1.1/"
   xmlns:cc="http://creativecommons.org/ns#"
   xmlns:rdf="http://www.w3.org/1999/02/22-rdf-syntax-ns#"
   xmlns:svg="http://www.w3.org/2000/svg"
   xmlns="http://www.w3.org/2000/svg"
   xmlns:sodipodi="http://sodipodi.sourceforge.net/DTD/sodipodi-0.dtd"
   xmlns:inkscape="http://www.inkscape.org/namespaces/inkscape"
   version="1.0"
   width="580"
   height="580"
   id="svg2"
   sodipodi:version="0.32"
   inkscape:version="0.48.0 r9654"
   sodipodi:docname="amenity_bench.svg"
   inkscape:output_extension="org.inkscape.output.svg.inkscape">
  <metadata
     id="metadata2975">
    <rdf:RDF>
      <cc:Work
         rdf:about="">
        <dc:format>image/svg+xml</dc:format>
        <dc:type
           rdf:resource="http://purl.org/dc/dcmitype/StillImage" />
        <cc:license
           rdf:resource="http://web.resource.org/cc/PublicDomain" />
        <dc:language>en</dc:language>
        <dc:title></dc:title>
      </cc:Work>
    </rdf:RDF>
  </metadata>
  <sodipodi:namedview
     inkscape:window-height="711"
     inkscape:window-width="1014"
     inkscape:pageshadow="2"
     inkscape:pageopacity="0.0"
     guidetolerance="10.0"
     gridtolerance="10.0"
     objecttolerance="10.0"
     borderopacity="1.0"
     bordercolor="#666666"
     pagecolor="#ffffff"
     id="base"
     inkscape:zoom="0.46083856"
     inkscape:cx="588.63997"
     inkscape:cy="297.6084"
     inkscape:window-x="1"
     inkscape:window-y="24"
     inkscape:current-layer="svg2"
     showgrid="false"
     inkscape:window-maximized="0" />
  <defs
     id="defs4">
    <inkscape:perspective
       sodipodi:type="inkscape:persp3d"
       inkscape:vp_x="0 : 290 : 1"
       inkscape:vp_y="0 : 1000 : 0"
       inkscape:vp_z="580 : 290 : 1"
       inkscape:persp3d-origin="290 : 193.33333 : 1"
       id="perspective2441" />
    <inkscape:perspective
       id="perspective3452"
       inkscape:persp3d-origin="30 : 20 : 1"
       inkscape:vp_z="60 : 30 : 1"
       inkscape:vp_y="0 : 1000 : 0"
       inkscape:vp_x="0 : 30 : 1"
       sodipodi:type="inkscape:persp3d" />
    <symbol
       viewBox="244.5 110 489 219.9"
       id="symbol-university">
      <path
         id="path4460"
         d="M79,43l57,119c0,0,21-96,104-96s124,106,124,106l43-133l82-17L0,17L79,43z" />
      <path
         id="path4462"
         d="M94,176l-21,39"
         stroke-width="20"
         stroke="#000000"
         fill="none" />
      <path
         id="path4464"
         d="M300,19c0,10.5-22.6,19-50.5,19S199,29.5,199,19s22.6-19,50.5-19S300,8.5,300,19z" />
      <path
         id="path4466"
         d="M112,216l-16-38L64,88c0,0-9-8-4-35s16-24,16-24"
         stroke-width="20"
         stroke="#000000"
         ill="none" />
    </symbol>
    <inkscape:perspective
       id="perspective4471"
       inkscape:persp3d-origin="372.04724 : 350.78739 : 1"
       inkscape:vp_z="744.09448 : 526.18109 : 1"
       inkscape:vp_y="0 : 1000 : 0"
       inkscape:vp_x="0 : 526.18109 : 1"
       sodipodi:type="inkscape:persp3d" />
    <inkscape:perspective
       id="perspective4668"
       inkscape:persp3d-origin="6 : 4 : 1"
       inkscape:vp_z="12 : 6 : 1"
       inkscape:vp_y="0 : 1000 : 0"
       inkscape:vp_x="0 : 6 : 1"
       sodipodi:type="inkscape:persp3d" />
    <inkscape:perspective
       id="perspective4904"
       inkscape:persp3d-origin="16 : 10.666667 : 1"
       inkscape:vp_z="32 : 16 : 1"
       inkscape:vp_y="0 : 1000 : 0"
       inkscape:vp_x="0 : 16 : 1"
       sodipodi:type="inkscape:persp3d" />
    <marker
       style="overflow:visible;"
       id="Arrow2Lend"
       refX="0.0"
       refY="0.0"
       orient="auto"
       inkscape:stockid="Arrow2Lend">
      <path
         transform="scale(1.1) rotate(180) translate(1,0)"
         d="M 8.7185878,4.0337352 L -2.2072895,0.016013256 L 8.7185884,-4.0017078 C 6.9730900,-1.6296469 6.9831476,1.6157441 8.7185878,4.0337352 z "
         style="font-size:12.0;fill-rule:evenodd;stroke-width:0.62500000;stroke-linejoin:round;"
         id="path4137" />
    </marker>
    <marker
       style="overflow:visible;"
       id="Arrow1Mend"
       refX="0.0"
       refY="0.0"
       orient="auto"
       inkscape:stockid="Arrow1Mend">
      <path
         transform="scale(0.4) rotate(180) translate(10,0)"
         style="fill-rule:evenodd;stroke:#000000;stroke-width:1.0pt;marker-start:none;"
         d="M 0.0,0.0 L 5.0,-5.0 L -12.5,0.0 L 5.0,5.0 L 0.0,0.0 z "
         id="path4125" />
    </marker>
    <marker
       style="overflow:visible"
       id="TriangleOutL"
       refX="0.0"
       refY="0.0"
       orient="auto"
       inkscape:stockid="TriangleOutL">
      <path
         transform="scale(0.8)"
         style="fill-rule:evenodd;stroke:#000000;stroke-width:1.0pt;marker-start:none"
         d="M 5.77,0.0 L -2.88,5.0 L -2.88,-5.0 L 5.77,0.0 z "
         id="path4214" />
    </marker>
    <marker
       style="overflow:visible;"
       id="Arrow1Lend"
       refX="0.0"
       refY="0.0"
       orient="auto"
       inkscape:stockid="Arrow1Lend">
      <path
         transform="scale(0.8) rotate(180) translate(12.5,0)"
         style="fill-rule:evenodd;stroke:#000000;stroke-width:1.0pt;marker-start:none;"
         d="M 0.0,0.0 L 5.0,-5.0 L -12.5,0.0 L 5.0,5.0 L 0.0,0.0 z "
         id="path4119" />
    </marker>
    <marker
       style="overflow:visible"
       id="Tail"
       refX="0.0"
       refY="0.0"
       orient="auto"
       inkscape:stockid="Tail">
      <g
         transform="scale(-1.2)"
         id="g4152">
        <path
           style="fill:none;fill-rule:evenodd;stroke:#000000;stroke-width:0.8;marker-start:none;marker-end:none;stroke-linecap:round"
           d="M -3.8048674,-3.9585227 L 0.54352094,0"
           id="path4154" />
        <path
           style="fill:none;fill-rule:evenodd;stroke:#000000;stroke-width:0.8;marker-start:none;marker-end:none;stroke-linecap:round"
           d="M -1.2866832,-3.9585227 L 3.0617053,0"
           id="path4156" />
        <path
           style="fill:none;fill-rule:evenodd;stroke:#000000;stroke-width:0.8;marker-start:none;marker-end:none;stroke-linecap:round"
           d="M 1.3053582,-3.9585227 L 5.6537466,0"
           id="path4158" />
        <path
           style="fill:none;fill-rule:evenodd;stroke:#000000;stroke-width:0.8;marker-start:none;marker-end:none;stroke-linecap:round"
           d="M -3.8048674,4.1775838 L 0.54352094,0.21974226"
           id="path4160" />
        <path
           style="fill:none;fill-rule:evenodd;stroke:#000000;stroke-width:0.8;marker-start:none;marker-end:none;stroke-linecap:round"
           d="M -1.2866832,4.1775838 L 3.0617053,0.21974226"
           id="path4162" />
        <path
           style="fill:none;fill-rule:evenodd;stroke:#000000;stroke-width:0.8;marker-start:none;marker-end:none;stroke-linecap:round"
           d="M 1.3053582,4.1775838 L 5.6537466,0.21974226"
           id="path4164" />
      </g>
    </marker>
    <marker
       style="overflow:visible"
       id="Arrow1Sstart"
       refX="0.0"
       refY="0.0"
       orient="auto"
       inkscape:stockid="Arrow1Sstart">
      <path
         transform="scale(0.2) translate(6,0)"
         style="fill-rule:evenodd;stroke:#000000;stroke-width:1.0pt;marker-start:none"
         d="M 0.0,0.0 L 5.0,-5.0 L -12.5,0.0 L 5.0,5.0 L 0.0,0.0 z "
         id="path4128" />
    </marker>
    <marker
       style="overflow:visible;"
       id="Arrow1Send"
       refX="0.0"
       refY="0.0"
       orient="auto"
       inkscape:stockid="Arrow1Send">
      <path
         transform="scale(0.2) rotate(180) translate(6,0)"
         style="fill-rule:evenodd;stroke:#000000;stroke-width:1.0pt;marker-start:none;"
         d="M 0.0,0.0 L 5.0,-5.0 L -12.5,0.0 L 5.0,5.0 L 0.0,0.0 z "
         id="path4131" />
    </marker>
    <marker
       style="overflow:visible"
       id="SemiCircleOut"
       refX="0.0"
       refY="0.0"
       orient="auto"
       inkscape:stockid="SemiCircleOut">
      <path
         transform="scale(0.6) translate(7.125493,0.763446)"
         style="fill-rule:evenodd;stroke:#000000;stroke-width:1.0pt;marker-start:none;marker-end:none"
         d="M -2.5,-0.80913858 C -2.5,1.9508614 -4.7400000,4.1908614 -7.5,4.1908614 L -7.5,-5.8091386 C -4.7400000,-5.8091386 -2.5,-3.5691386 -2.5,-0.80913858 z "
         id="path4235" />
    </marker>
    <marker
       style="overflow:visible;"
       id="Arrow2Send"
       refX="0.0"
       refY="0.0"
       orient="auto"
       inkscape:stockid="Arrow2Send">
      <path
         transform="scale(0.3) rotate(180) translate(-2.3,0)"
         d="M 8.7185878,4.0337352 L -2.2072895,0.016013256 L 8.7185884,-4.0017078 C 6.9730900,-1.6296469 6.9831476,1.6157441 8.7185878,4.0337352 z "
         style="font-size:12.0;fill-rule:evenodd;stroke-width:0.62500000;stroke-linejoin:round;"
         id="path4149" />
    </marker>
    <marker
       style="overflow:visible"
       id="TriangleOutS"
       refX="0.0"
       refY="0.0"
       orient="auto"
       inkscape:stockid="TriangleOutS">
      <path
         transform="scale(0.2)"
         style="fill-rule:evenodd;stroke:#000000;stroke-width:1.0pt;marker-start:none"
         d="M 5.77,0.0 L -2.88,5.0 L -2.88,-5.0 L 5.77,0.0 z "
         id="path4220" />
    </marker>
    <marker
       style="overflow:visible"
       id="CurveIn"
       refX="0.0"
       refY="0.0"
       orient="auto"
       inkscape:stockid="CurveIn">
      <path
         transform="scale(0.6)"
         style="fill-rule:evenodd;stroke:#000000;stroke-width:1.0pt;marker-start:none;marker-end:none;fill:none"
         d="M 4.6254930,-5.0456926 C 1.8654930,-5.0456926 -0.37450702,-2.8056926 -0.37450702,-0.045692580 C -0.37450702,2.7143074 1.8654930,4.9543074 4.6254930,4.9543074"
         id="path4238" />
    </marker>
    <marker
       orient="auto"
       refY="0"
       refX="0"
       id="InfiniteLineStart"
       inkscape:stockid="InfiniteLineStart"
       style="overflow:visible">
      <g
         transform="translate(-13,0)"
         id="g4298">
        <circle
           cx="3"
           cy="0"
           r="0.8"
           id="circle4300"
           d="M 3.8,0 C 3.8,0.44182781 3.4418278,0.80000001 3,0.80000001 2.5581722,0.80000001 2.2,0.44182781 2.2,0 c 0,-0.44182781 0.3581722,-0.80000001 0.8,-0.80000001 0.4418278,0 0.8,0.3581722 0.8,0.80000001 z" />
        <circle
           cx="6.5"
           cy="0"
           r="0.8"
           id="circle4302"
           d="M 7.3,0 C 7.3,0.44182781 6.9418278,0.80000001 6.5,0.80000001 6.0581722,0.80000001 5.7,0.44182781 5.7,0 c 0,-0.44182781 0.3581722,-0.80000001 0.8,-0.80000001 0.4418278,0 0.8,0.3581722 0.8,0.80000001 z" />
        <circle
           cx="10"
           cy="0"
           r="0.8"
           id="circle4304"
           d="M 10.8,0 C 10.8,0.44182781 10.441828,0.80000001 10,0.80000001 9.5581722,0.80000001 9.2,0.44182781 9.2,0 c 0,-0.44182781 0.3581722,-0.80000001 0.8,-0.80000001 0.441828,0 0.8,0.3581722 0.8,0.80000001 z" />
      </g>
    </marker>
    <marker
       style="overflow:visible"
       id="StopS"
       refX="0.0"
       refY="0.0"
       orient="auto"
       inkscape:stockid="StopS">
      <path
         transform="scale(0.2)"
         style="fill:none;fill-opacity:0.75000000;fill-rule:evenodd;stroke:#000000;stroke-width:1.0pt"
         d="M 0.0,5.65 L 0.0,-5.65"
         id="path4229" />
    </marker>
    <marker
       style="overflow:visible"
       id="Arrow2Sstart"
       refX="0.0"
       refY="0.0"
       orient="auto"
       inkscape:stockid="Arrow2Sstart">
      <path
         transform="scale(0.3) translate(-2.3,0)"
         d="M 8.7185878,4.0337352 L -2.2072895,0.016013256 L 8.7185884,-4.0017078 C 6.9730900,-1.6296469 6.9831476,1.6157441 8.7185878,4.0337352 z "
         style="font-size:12.0;fill-rule:evenodd;stroke-width:0.62500000;stroke-linejoin:round"
         id="path4146" />
    </marker>
    <marker
       style="overflow:visible"
       id="DiamondS"
       refX="0.0"
       refY="0.0"
       orient="auto"
       inkscape:stockid="DiamondS">
      <path
         transform="scale(0.2)"
         style="fill-rule:evenodd;stroke:#000000;stroke-width:1.0pt;marker-start:none"
         d="M 0,-7.0710768 L -7.0710894,0 L 0,7.0710589 L 7.0710462,0 L 0,-7.0710768 z "
         id="path4202" />
    </marker>
    <marker
       orient="auto"
       refY="0"
       refX="0"
       id="RazorWire"
       inkscape:stockid="RazorWire">
       style=&quot;overflow:visible&quot;&gt;
      <path
   d="M 0.022727273,-0.74009011 L 0.022727273,0.69740989 L -7.7585227,3.0099099 L 10.678977,3.0099099 L 3.4914773,0.69740989 L 3.4914773,-0.74009011 L 10.741477,-2.8963401 L -7.7272727,-2.8963401 L 0.022727273,-0.74009011 z "
   style="fill:#808080;fill-opacity:1;fill-rule:evenodd;stroke:#000000;stroke-width:0.1pt"
   transform="scale(0.8,0.8)"
   id="path4286" />
</marker>
    <inkscape:perspective
       id="perspective5233"
       inkscape:persp3d-origin="16 : 10.666667 : 1"
       inkscape:vp_z="32 : 16 : 1"
       inkscape:vp_y="0 : 1000 : 0"
       inkscape:vp_x="0 : 16 : 1"
       sodipodi:type="inkscape:persp3d" />
    <inkscape:perspective
       id="perspective5412"
       inkscape:persp3d-origin="250 : 166.66667 : 1"
       inkscape:vp_z="500 : 250 : 1"
       inkscape:vp_y="0 : 1000 : 0"
       inkscape:vp_x="0 : 250 : 1"
       sodipodi:type="inkscape:persp3d" />
    <inkscape:perspective
       id="perspective5571"
       inkscape:persp3d-origin="202.85715 : 136.19048 : 1"
       inkscape:vp_z="405.71429 : 204.28572 : 1"
       inkscape:vp_y="0 : 1000 : 0"
       inkscape:vp_x="0 : 204.28572 : 1"
       sodipodi:type="inkscape:persp3d" />
    <inkscape:perspective
       id="perspective6552"
       inkscape:persp3d-origin="64 : 42.666667 : 1"
       inkscape:vp_z="128 : 64 : 1"
       inkscape:vp_y="0 : 1000 : 0"
       inkscape:vp_x="0 : 64 : 1"
       sodipodi:type="inkscape:persp3d" />
    <inkscape:perspective
       id="perspective8761"
       inkscape:persp3d-origin="238.5 : 114.33333 : 1"
       inkscape:vp_z="477 : 171.5 : 1"
       inkscape:vp_y="0 : 1000 : 0"
       inkscape:vp_x="0 : 171.5 : 1"
       sodipodi:type="inkscape:persp3d" />
    <inkscape:perspective
       id="perspective10479"
       inkscape:persp3d-origin="52.830002 : 33.539668 : 1"
       inkscape:vp_z="105.66 : 50.309502 : 1"
       inkscape:vp_y="0 : 1000 : 0"
       inkscape:vp_x="0 : 50.309502 : 1"
       sodipodi:type="inkscape:persp3d" />
    <marker
       viewBox="0 0 10 10"
       refY="5"
       refX="10"
       orient="auto"
       markerWidth="4"
       markerUnits="strokeWidth"
       markerHeight="3"
       id="ArrowStart">
      <path
         id="path1968"
         d="M 10 0 L 0 5 L 10 10 z" />
    </marker>
    <marker
       viewBox="0 0 10 10"
       refY="5"
       refX="0"
       orient="auto"
       markerWidth="4"
       markerUnits="strokeWidth"
       markerHeight="3"
       id="ArrowEnd">
      <path
         id="path1965"
         d="M 0 0 L 10 5 L 0 10 z" />
    </marker>
    <inkscape:perspective
       id="perspective10853"
       inkscape:persp3d-origin="223.9745 : 153.55566 : 1"
       inkscape:vp_z="447.94901 : 230.3335 : 1"
       inkscape:vp_y="0 : 1000 : 0"
       inkscape:vp_x="0 : 230.3335 : 1"
       sodipodi:type="inkscape:persp3d" />
  </defs>
  <g
     id="g1327">
    <path
       d="M 66.275,1.768 C 24.94,1.768 1.704,23.139 1.704,66.804 L 1.704,516.927 C 1.704,557.771 22.599,579.156 63.896,579.156 L 515.92,579.156 C 557.227,579.156 578.149,558.841 578.149,516.927 L 578.149,66.804 C 578.149,24.203 557.227,1.768 514.628,1.768 C 514.624,1.768 66.133,1.625 66.275,1.768 z "
       style="fill:#111;stroke:#eee;stroke-width:3.40799999"
       id="path1329" />
  </g>
  <circle
     id="circle5739"
     r="0.764"
     cy="152.353"
     cx="18.940001"
     d="m 19.704001,152.353 c 0,0.42194 -0.342055,0.764 -0.764,0.764 -0.421946,0 -0.764,-0.34206 -0.764,-0.764 0,-0.42195 0.342054,-0.764 0.764,-0.764 0.421945,0 0.764,0.34205 0.764,0.764 z"
     sodipodi:cx="18.940001"
     sodipodi:cy="152.353"
     sodipodi:rx="0.764"
     sodipodi:ry="0.764"
     style="fill:#ffffff"
     transform="matrix(57.208547,0,0,57.208547,-862.80914,-8592.0905)" />
  <path
     id="path5741"
     d="m 59.50705,406.41348 c 10.24033,0 20.0802,-2.34555 28.89032,-6.29294 9.03895,-4.17622 19.27928,-6.63619 29.86286,-6.63619 10.58358,0 20.82391,2.45997 29.80566,6.63619 8.86732,3.94739 18.7644,6.23573 29.11915,6.23573 10.29753,0 20.19461,-2.28834 29.00473,-6.23573 8.98174,-4.17622 19.22207,-6.63619 29.86286,-6.63619 10.64079,0 20.7667,2.45997 29.86286,6.63619 8.75291,3.94739 18.70721,6.23573 29.00471,6.23573 10.2976,0 20.2519,-2.28834 29.0048,-6.23573 9.0961,-4.17622 19.2792,-6.63619 29.92,-6.63619 10.6408,0 20.7667,2.45997 29.8057,6.63619 8.8673,3.94739 18.7644,6.23573 29.0619,6.23573 10.3548,0 20.1946,-2.28834 29.062,-6.23573 8.9817,-4.17622 19.222,-6.63619 29.8056,-6.63619 9.0962,0 17.9063,1.71626 25.9155,4.86273 12.9863,-14.18772 20.9955,-33.06654 20.9955,-53.71883 0,-44.05058 -35.6409,-79.6915 -79.6343,-79.6915 l -8.9245,0.97254 c -9.7827,39.70273 -49.4854,41.41899 -49.4854,41.41899 l -181.80876,-0.0572 -15.21747,-8.92453 36.67068,-61.49919 40.10319,23.16946 c 24.02756,15.56073 36.55626,-6.23573 36.55626,-6.23573 l 40.2176,-65.56099 c 17.5058,-28.48986 -19.6225,-51.31607 -36.9567,-22.7118 l -28.14662,45.99567 -66.934,-37.01393 c -46.39613,-25.85826 -66.01866,16.99094 -66.01866,16.99094 l -52.57466,90.04626 c -8.92453,18.70719 -0.97254,26.7736 -0.97254,26.7736 l -25.97268,-0.0572 v 98.16986 z"
     inkscape:connector-curvature="0"
     style="fill:#ffffff" />
  <path
     id="path5743"
     d="m 530.5622,493.37047 c -10.2975,0 -20.1946,-2.28834 -28.9475,-6.23573 -9.0962,-4.17622 -19.2793,-6.63619 -29.9201,-6.63619 -10.6408,0 -20.8239,2.45997 -29.8056,6.63619 -8.8673,3.94739 -18.7072,6.23573 -29.062,6.23573 -10.2975,0 -20.1946,-2.28834 -29.0619,-6.23573 -9.039,-4.17622 -19.2221,-6.63619 -29.8057,-6.63619 -10.698,0 -20.8239,2.45997 -29.92,6.63619 -8.7529,3.94739 -18.7072,6.23573 -29.0048,6.23573 -10.2975,0 -20.25178,-2.28834 -29.00469,-6.23573 -9.09616,-4.17622 -19.27928,-6.63619 -29.86286,-6.63619 -10.698,0 -20.88112,2.45997 -29.86286,6.63619 -8.81012,3.94739 -18.7072,6.23573 -29.00474,6.23573 -10.35474,0 -20.25182,-2.28834 -29.11915,-6.23573 -8.98174,-4.17622 -19.22207,-6.63619 -29.80565,-6.63619 -10.58358,0 -20.82391,2.45997 -29.86286,6.63619 -8.81012,3.94739 -18.7072,6.23573 -29.00474,6.23573 v -43.47849 c 10.29754,0 20.19462,-2.34555 29.00474,-6.29294 9.03895,-4.17623 19.27928,-6.63619 29.86286,-6.63619 10.58358,0 20.82391,2.45996 29.80565,6.63619 8.86733,3.94739 18.76441,6.29294 29.11915,6.29294 10.29754,0 20.19462,-2.34555 29.00474,-6.29294 8.98174,-4.17623 19.22207,-6.63619 29.86286,-6.63619 10.64079,0 20.7667,2.45996 29.86286,6.63619 8.75291,3.94739 18.70719,6.29294 29.00469,6.29294 10.2976,0 20.2519,-2.34555 29.0048,-6.29294 9.0961,-4.17623 19.2793,-6.63619 29.92,-6.63619 10.6408,0 20.7667,2.45996 29.8057,6.63619 8.8673,3.94739 18.7644,6.29294 29.0619,6.29294 10.3548,0 20.1947,-2.34555 29.062,-6.29294 8.9817,-4.17623 19.2221,-6.63619 29.8056,-6.63619 10.698,0 20.8239,2.45996 29.9201,6.63619 8.7529,3.94739 18.65,6.29294 28.9475,6.29294 v 43.47849 z"
     inkscape:connector-curvature="0"
     style="fill:#ffffff" />
</svg>

<svg width="580" height="580" viewBox="0 0 580 580" fill="none" xmlns="http://www.w3.org/2000/svg">
<g clip-path="url(#clip0)">
<path d="M66.2751 1.76815C24.9401 1.76815 1.7041 23.1391 1.7041 66.8041V516.927C1.7041 557.771 22.5991 579.156 63.8961 579.156H515.92C557.227 579.156 578.149 558.841 578.149 516.927V66.8041C578.149 24.2031 557.227 1.76815 514.628 1.76815C514.624 1.76815 66.1331 1.62515 66.2751 1.76815Z" fill="#111111" stroke="#EEEEEE" stroke-width="3.408"/>
<path d="M220.721 167.511C244.86 167.511 264.428 147.942 264.428 123.803C264.428 99.6642 244.86 80.0962 220.721 80.0962C196.582 80.0962 177.013 99.6642 177.013 123.803C177.013 147.942 196.582 167.511 220.721 167.511Z" fill="white"/>
<path d="M59.507 406.414C69.7473 406.414 79.5872 404.068 88.3973 400.121C97.4363 395.944 107.677 393.484 118.26 393.484C128.844 393.484 139.084 395.944 148.066 400.121C156.933 404.068 166.83 406.356 177.185 406.356C187.483 406.356 197.38 404.068 206.19 400.121C215.171 395.944 225.412 393.484 236.053 393.484C246.693 393.484 256.819 395.944 265.915 400.121C274.668 404.068 284.623 406.356 294.92 406.356C305.218 406.356 315.172 404.068 323.925 400.121C333.021 395.944 343.204 393.484 353.845 393.484C364.486 393.484 374.612 395.944 383.651 400.121C392.518 404.068 402.415 406.356 412.713 406.356C423.067 406.356 432.907 404.068 441.775 400.121C450.756 395.944 460.997 393.484 471.58 393.484C480.676 393.484 489.486 395.201 497.496 398.347C510.482 384.159 518.491 365.281 518.491 344.628C518.491 300.578 482.85 264.937 438.857 264.937L429.932 265.909C420.15 305.612 380.447 307.328 380.447 307.328L198.638 307.271L183.421 298.347L220.091 236.848L260.195 260.017C284.222 275.578 296.751 253.781 296.751 253.781L336.968 188.22C354.474 159.73 317.346 136.904 300.012 165.508L271.865 211.504L204.931 174.49C158.535 148.632 138.912 191.481 138.912 191.481L86.3378 281.527C77.4133 300.235 85.3653 308.301 85.3653 308.301L59.3926 308.244V406.414L59.507 406.414Z" fill="white"/>
<path d="M530.562 493.371C520.265 493.371 510.368 491.082 501.615 487.135C492.519 482.959 482.335 480.499 471.695 480.499C461.054 480.499 450.871 482.959 441.889 487.135C433.022 491.082 423.182 493.371 412.827 493.371C402.53 493.371 392.632 491.082 383.765 487.135C374.726 482.959 364.543 480.499 353.959 480.499C343.261 480.499 333.136 482.959 324.039 487.135C315.287 491.082 305.332 493.371 295.035 493.371C284.737 493.371 274.783 491.082 266.03 487.135C256.934 482.959 246.751 480.499 236.167 480.499C225.469 480.499 215.286 482.959 206.304 487.135C197.494 491.082 187.597 493.371 177.299 493.371C166.945 493.371 157.048 491.082 148.18 487.135C139.199 482.959 128.958 480.499 118.375 480.499C107.791 480.499 97.5508 482.959 88.5118 487.135C79.7017 491.082 69.8046 493.371 59.5071 493.371V449.892C69.8046 449.892 79.7017 447.546 88.5118 443.599C97.5508 439.423 107.791 436.963 118.375 436.963C128.958 436.963 139.199 439.423 148.18 443.599C157.048 447.546 166.945 449.892 177.299 449.892C187.597 449.892 197.494 447.546 206.304 443.599C215.286 439.423 225.526 436.963 236.167 436.963C246.808 436.963 256.934 439.423 266.03 443.599C274.783 447.546 284.737 449.892 295.035 449.892C305.332 449.892 315.287 447.546 324.039 443.599C333.136 439.423 343.319 436.963 353.959 436.963C364.6 436.963 374.726 439.423 383.765 443.599C392.632 447.546 402.53 449.892 412.827 449.892C423.182 449.892 433.022 447.546 441.889 443.599C450.871 439.423 461.111 436.963 471.695 436.963C482.393 436.963 492.519 439.423 501.615 443.599C510.368 447.546 520.265 449.892 530.562 449.892V493.371V493.371Z" fill="white"/>
</g>
<defs>
<clipPath id="clip0">
<path d="M0 0H580V580H0V0Z" fill="white"/>
</clipPath>
</defs>
</svg>
